!!!OTL: Lasset und schlingen.
!!!OTL-incipit: LASSET UNS SCHLINGEN DEM FRUEHLING BLUEMELEIN
!!!COM: Volksweise
!!!ARE: Europa, Mitteleuropa, Deutschland
!!!SCT: F0371
!!!TXL: @@DE
!!!YEM: Copyright 1995, estate of Helmut Schaffrath.
**kern	**text
*ICvox	*
*M3/4	*
*k[f#c#]	*
*D:	*
=1	=1
!LO:TX:a:t=Freudig.	!
!LO:TX:a:t=Zweistimmig.	!
{4a	Laſ-
4f#	-ſet
4a	uns
=2	=2
(>4a	ſchlin-
8gL	.
8f#J)	.
4g}	-gen
=3	=3
{4g	dem
4e	Frühling
4g	.
=4	=4
8f#	Blü-
8e	-me-
8f#	-lein
8g	ʒum
4a}	Kranʒ!
=5	=5
{4a	Laſ-
4f#	-ſet
4a	uns
=6	=6
(>4.dd/	ſprin-
8cc#/)	.
4b/}	-gen,
=7	=7
{4a	hei-
4b/	-ßa,
4g#	ʒum
=8	=8
2a	Tanʒ!
4r}	.
=9	=9
{4.a	Blu-
8g	-menpracht,
4f#	.
=10	=10
4.a	Lau-
8g	-bes-
4f#}	-duft,
=11	=11
{4dd/	re-
4cc#/	-ges
4b/	Ge-
=12	=12
(>4b/	-wim-
4a)	.
4a}	-mel,
=13	=13
{4a	Sang
4a	und
4a	Klang,
=14	=14
4.ff#/	Sonnenſchein,
8ee/	.
4dd/}	.
=15	=15
{4.ee/	hei-
8dd/	-te-
4cc#/	-rer
=16	=16
4ee/	Him-
4dd/	-mel.
4r}	.
==	==
!!!AGN: Jugend - Lied, Natur, Jahreszeiten, Fruehling
!!!ONB: ESAC (Essen Associative Code) Database: FINK
!!!AMT: simple triple
!!!AIN: vox
!!!EED: Helmut Schaffrath
!!!EEV: 1.0
!!!RDF**kern: >= above
!!Text: Werner
!!!source: Musikalischer Hausschatz der Deutschen. Eine Sammlung von über 1000 Liedern und Gesängen mit Singstimmen und Klavierbegleitung. Leipzig, Litterarisches Verlags-Haus.
!!!page: 221
!!!ENC: Anna Maria Matuszewska
!!!EEV: 2025/03/14
*-	*-
